X: 2
P: Kristian Oskarssons hambo-masurka
C: Kristian Oskarsson
O: Bj\"or Kede, Kall, J\"amtland
Z: John Chambers <jc@trillian.mit.edu>
D: Dansbart  B-18
R: hambo-polska
M: 3/4
L: 1/8
K: G
|: "G"(3dBd gG | "D7"F>G A<c B>A |1,3 "G"G>F G<B d2 :|2,4 "G"G2 HG4 :|
K: D
|: "D" a>A a<A a>a | b>a f2 f>f |1,3 "A7"a>g e2 (3efg | "D"b>a f2 d2 :|2,4 "A7"a>g e<c (3ABc | "D"d2 d4 :|
